X:1
T:The Trooper and the Maid
M:4/4
L:1/4
K:C
 G G G E2| G C/2C/2 C B,| A,2 G
M:4/4
| _B B G G| _B2 G G| c c A c| GG/2-E/2 C D| E/2- G A/2 G/2- E D/2|\
 C2 C z| G3/2- E/2 G c| G3/2- E/2 C G| c c A c| GG/2-E/2 C D| E/2- G A/2 G/2- E D/2|\
 C2 C z|
